X:1
T:Reel de Tadoussac
C:Joseph Allard
R:reel
M:4/4
L:1/8
Z:abc by Bruce Osborne - bosborne@kos.net
K:G
GA|B2B2 cBce|d2dc BGBd|cBcA FDFA|eddc BGDG|
B2B2 cBce|d2dc BGBd|cBcA FDFA|G2GF G2::
Bd|gagf ecge|d2dc BGBd|cBcA FDFA|eddc BGBd|
gagf ecge|d2dc BGBd|cBcA FDFA|G2GF G2:|
